static/images/icon-ai-analytics.svg

<svg width="36" height="36" viewBox="0 0 36 36" fill="none" xmlns="http://www.w3.org/2000/svg">
<path d="M4.5 16.5L8.25 12.75C9.7755 11.2245 10.539 10.461 11.4555 10.293C11.8155 10.2266 12.1845 10.2266 12.5445 10.293C13.461 10.461 14.2245 11.223 15.75 12.75C17.2755 14.277 18.039 15.039 18.9555 15.207C19.3155 15.2745 19.6845 15.2745 20.0445 15.207C20.961 15.039 21.7245 14.2755 23.25 12.75L31.5 4.5M4.5 22.5V31.5M13.5 19.5V31.5M22.5 24V31.5M31.5 13.5V31.5" stroke="black" stroke-width="2.5" stroke-linecap="round" stroke-linejoin="round"/>
</svg>

<svg xmlns="http://www.w3.org/2000/svg" width="36" height="36" fill="none" viewBox="0 0 36 36"><path stroke="#000" stroke-linecap="round" stroke-linejoin="round" stroke-width="2.5" d="m4.5 16.5 3.8-3.7c1.5-1.6 2.2-2.3 3.2-2.5h1c1 .2 1.7 1 3.3 2.4 1.5 1.6 2.2 2.3 3.2 2.5h1c1-.2 1.7-1 3.3-2.4l8.2-8.3m-27 18v9m9-12v12m9-7.5v7.5m9-18v18"/></svg>
